icons/number-16.svg

<svg width="16" height="16" viewBox="0 0 16 16" fill="none" xmlns="http://www.w3.org/2000/svg">
<path fill-rule="evenodd" clip-rule="evenodd" d="M1 5.25011C1 4.8359 1.33579 4.50011 1.75 4.50011H14.25C14.6642 4.50011 15 4.8359 15 5.25011C15 5.66432 14.6642 6.00011 14.25 6.00011H1.75C1.33579 6.00011 1 5.66432 1 5.25011Z" fill="black"/>
<path fill-rule="evenodd" clip-rule="evenodd" d="M1 10.7501C1 10.3359 1.33579 10.0001 1.75 10.0001H14.25C14.6642 10.0001 15 10.3359 15 10.7501C15 11.1643 14.6642 11.5001 14.25 11.5001H1.75C1.33579 11.5001 1 11.1643 1 10.7501Z" fill="black"/>
<path fill-rule="evenodd" clip-rule="evenodd" d="M6.36849 1.00953C6.7775 1.07497 7.05602 1.45959 6.99058 1.8686L4.99058 14.3686C4.92514 14.7776 4.54052 15.0561 4.13151 14.9907C3.7225 14.9253 3.44398 14.5406 3.50942 14.1316L5.50942 1.63162C5.57486 1.22261 5.95948 0.944089 6.36849 1.00953Z" fill="black"/>
<path fill-rule="evenodd" clip-rule="evenodd" d="M11.8685 1.00953C12.2775 1.07497 12.556 1.45959 12.4906 1.8686L10.4906 14.3686C10.4251 14.7776 10.0405 15.0561 9.63151 14.9907C9.2225 14.9253 8.94398 14.5406 9.00942 14.1316L11.0094 1.63162C11.0749 1.22261 11.4595 0.944089 11.8685 1.00953Z" fill="black"/>
</svg>

<svg xmlns="http://www.w3.org/2000/svg" width="16" height="16" viewBox="0 0 16 16"><path fill-rule="evenodd" d="M1 5.25a.75.75 0 01.75-.75h12.5a.75.75 0 010 1.5H1.75A.75.75 0 011 5.25zm0 5.5a.75.75 0 01.75-.75h12.5a.75.75 0 010 1.5H1.75a.75.75 0 01-.75-.75z"/><path fill-rule="evenodd" d="M6.368 1.01a.75.75 0 01.623.859l-2 12.5a.75.75 0 01-1.482-.237l2-12.5a.75.75 0 01.86-.622zm5.5 0a.75.75 0 01.623.859l-2 12.5a.75.75 0 01-1.482-.237l2-12.5a.75.75 0 01.86-.622z"/></svg>
